!!!Genre:	Ange
!!!Mode:	Minor
!!!Edition:	2015
!!!Listening/dance:	dance
!!!Free rhythm?:	No
!!!Secondary Modes:	18-20
!!!:	*G:frey
!!!One_Mode:	no
**kern
*I"P1
*clefG2
*k[b-e-]
*g:
*M2/4
*>A
=1
(16gLL
16d)
16g
16b-JJ
8ddL
8ccJ
=2
(16b-LL
16a)
(16a
16gJJ)
8ccL
8b-J
=3
(16gLL
16d)
16g
16b-JJ
8ddL
8ccJ
=4
(16b-LL
16cc)
(16a
16b-JJ)
8g
8r
=5:|!
*>B
4.dd
8cc
=6
4.b-
8f
=7
16b-LL
16f
16b-
16ccJJ
8ddL
8ccJ
=8
4.b-
8f
=9
16b-LL
16a
16b-
16ccJJ
8ddL
8ccJ
=10
16b-LL
16a
16b-
16ccJJ
8ddL
8ccJ
=11
16b-LL
16a
16b-
16ccJJ
8ddL
8ccJ
=12
4.b-
8f
=13
8b-L
16aL
16b-JJ
8ccL
16b-L
16aJJ
=14
8b-L
16aL
16b-JJ
8ccL
16b-L
16aJJ
=15
8b-L
16aL
16b-JJ
8ccL
16b-L
16aJJ
=16
8dd-XL
16ccL
16b-JJ
4cc
=17
8b-L
16aL
16gJJ
8ccL
8ccJ
*>bM
*G:frey
=18
2bn
=19
8bnL
16a-XL
16gJJ
16fLL
16g
16a-
16fJJ
=20
2g
*>eM
==
*-
